src/assets/icons/pin.svg

<svg width="24" height="24" viewBox="0 0 24 24" fill="none" xmlns="http://www.w3.org/2000/svg">
<path d="M13.4190 6.0097C13.5438 5.8903 13.7214 5.8 13.8942 5.8C14.1234 5.8 14.4748 5.8578 14.912 6.0036C15.616 6.2383 16.3243 6.6424 16.968 7.286C17.6117 7.9297 18.0157 8.638 18.2504 9.342C18.3962 9.7793 18.454 10.1306 18.454 10.3599C18.454 10.5327 18.393 10.7059 18.2708 10.8281C17.2832 11.8161 16.5824 12.1543 15.3781 11.8011C14.7523 12.5493 14.5456 13.2604 14.5456 14.2681C14.5456 15.8533 14.3637 16.6895 13.711 17.342H13.6906C13.08 17.9527 12.1027 17.9527 11.4921 17.342L6.9119 12.7618C6.3014 12.1517 6.3014 11.174 6.9119 10.5634V10.5431C7.5643 9.8907 8.5232 9.7136 9.9918 9.7136C11.0661 9.7136 11.6096 9.5516 12.4702 8.8916C12.1014 7.7844 12.4103 6.9762 13.4190 6.0097Z" stroke="#314158" stroke-width="1.5"/>
<line x1="9.17" y1="17.0" x2="6.64" y2="19.53" stroke="#314158" stroke-width="1.5" stroke-linecap="round"/>
</svg>

<svg fill="none" viewBox="0 0 24 24"><path stroke="currentColor" stroke-width="1.5" d="M13.419 6.01a.72.72 0 0 1 .475-.21c.23 0 .58.058 1.018.204a5.2 5.2 0 0 1 2.056 1.282 5.2 5.2 0 0 1 1.282 2.056c.146.437.204.789.204 1.018a.66.66 0 0 1-.183.468c-.988.988-1.689 1.326-2.893.973-.626.748-.832 1.46-.832 2.467 0 1.585-.182 2.421-.835 3.074h-.02c-.611.61-1.588.61-2.199 0l-4.58-4.58a1.55 1.55 0 0 1 0-2.199v-.02c.652-.652 1.611-.83 3.08-.83 1.074 0 1.618-.161 2.478-.821-.369-1.108-.06-1.916.949-2.882Z"/><path stroke="currentColor" stroke-linecap="round" stroke-width="1.5" d="m9.17 17-2.53 2.53"/></svg>
